X:2907
T:Jack the horse-courser
O:england
R:Hornpipe
M:4/4
N:version in JGCW
L:1/8
K:G
G2g2 d2cB | cBAG F2ED | GDGB AFED | GDGB AFED |\
G2g2 d2cB | cBAG F2ED |
c2BA B2AG | D2F2 G4 :|\
|:d2g2 f2ed | e2fd c2BA | dAdf ecBA | dAdf ecBA |
d2g2 f2ed | e2fe c2BA | c2BA B2AG | D2F2 G4 :|


